v3/src/assets/plugins/plugin-testimate-icon.svg

<?xml version="1.0" encoding="UTF-8"?>
<svg width="24px" height="24px" viewBox="0 0 24 24" version="1.1" xmlns="http://www.w3.org/2000/svg" xmlns:xlink="http://www.w3.org/1999/xlink">
    <title>A39738F4-CAC4-43A4-9FF0-1668753B59D4</title>
    <g id="Plugin-Testimate-ICON" stroke="none" fill="none" fill-rule="nonzero">
        <rect id="Rectangle" x="0" y="0" width="24" height="24"></rect>
        <path d="M20.5,3 C21.6045695,3 22.5,3.8954305 22.5,5 L22.5,19 C22.5,20.1045695 21.6045695,21 20.5,21 L3.5,21 C2.3954305,21 1.5,20.1045695 1.5,19 L1.5,5 C1.5,3.8954305 2.3954305,3 3.5,3 L20.5,3 Z" id="Path" fill="#006C8E"></path>
        <polygon id="Path" fill="#D3F4FF" points="20.5 5 3.5 5 3.5 19 20.5 19"></polygon>
        <path d="M18.502793,14.5025098 L13.2938086,14.5025098 L13.2938086,13.3745801 L15.6932227,10.8521191 C16.2845312,10.1787793 16.5801855,9.64386719 16.5801855,9.24738281 C16.5801855,8.92609375 16.5101172,8.68170898 16.3699805,8.51422852 C16.2298437,8.34674805 16.0264746,8.26300781 15.759873,8.26300781 C15.4966895,8.26300781 15.2830664,8.37494629 15.1190039,8.59882324 C14.9549414,8.8227002 14.8729102,9.10211914 14.8729102,9.43708008 L13.14,9.43708008 C13.14,8.97907227 13.254502,8.55609863 13.4835059,8.16815918 C13.7125098,7.78021973 14.0303809,7.476875 14.4371191,7.258125 C14.8438574,7.039375 15.2984473,6.93 15.8008887,6.93 C16.6075293,6.93 17.2287451,7.1162793 17.6645361,7.48883789 C18.1003271,7.86139648 18.3182227,8.39630859 18.3182227,9.09357422 C18.3182227,9.38751953 18.2635352,9.67377441 18.1541602,9.95233887 C18.0447852,10.2309033 17.8747412,10.5231396 17.6440283,10.8290479 C17.4133154,11.1349561 17.0416113,11.5442578 16.528916,12.0569531 L15.5650488,13.169502 L18.502793,13.169502 L18.502793,14.5025098 Z M6.41992187,8.03 C6.84570312,8.03 7.20507812,8.1315625 7.49804688,8.3346875 C7.79101562,8.5378125 8.03515625,8.86789062 8.23046875,9.32492187 L8.79882813,10.608125 L10.0058594,8.12375 L11.7226562,8.12375 L9.61328125,12.4245312 L10.7207031,14.9030469 C10.8964844,15.2975781 11.125,15.5241406 11.40625,15.5827344 L11.59375,15.6061719 L11.7871094,15.6003125 L11.640625,16.9421094 C11.5273437,16.9694531 11.4003906,16.9870312 11.2597656,16.9948437 C10.9160156,17.014375 10.6357422,16.9743359 10.4189453,16.8747266 C10.2021484,16.7751172 9.99316406,16.5983594 9.79199219,16.3444531 C9.59082031,16.0905469 9.36523438,15.6589062 9.11523437,15.0495312 L8.74023437,14.1999219 L7.41601562,16.9010937 L5.74023438,16.9010937 L7.9375,12.3776562 L6.9296875,10.0807812 C6.75,9.6315625 6.41210938,9.40695312 5.91601562,9.40695312 L5.53515625,9.44210937 L5.5,8.16476562 C5.80859375,8.07492187 6.11523438,8.03 6.41992187,8.03 Z" id="Shape" fill="#006C8E"></path>
    </g>
</svg>

<svg viewBox="0 0 24 24" xmlns="http://www.w3.org/2000/svg">
  <g fill="none">
    <path d="M0 0h24v24H0z"/>
    <path d="M20.5 3a2 2 0 0 1 2 2v14a2 2 0 0 1-2 2h-17a2 2 0 0 1-2-2V5a2 2 0 0 1 2-2h17z" fill="#006C8E"/>
    <path fill="#D3F4FF" d="M20.5 5h-17v14h17z"/>
    <path d="M18.503 14.503h-5.21v-1.128l2.4-2.523c.592-.673.887-1.208.887-1.605 0-.32-.07-.565-.21-.733-.14-.167-.344-.251-.61-.251a.76.76 0 0 0-.641.336c-.164.224-.246.503-.246.838H13.14a2.452 2.452 0 0 1 1.297-2.179 2.833 2.833 0 0 1 1.364-.328c.807 0 1.428.186 1.864.559.435.372.653.907.653 1.605 0 .294-.054.58-.164.858-.11.279-.28.571-.51.877-.23.306-.602.715-1.115 1.228l-.964 1.113h2.938v1.333zM6.42 8.03c.426 0 .785.102 1.078.305.293.203.537.533.732.99l.569 1.283 1.207-2.484h1.717l-2.11 4.3 1.108 2.479c.175.395.404.621.685.68l.188.023.193-.006-.146 1.342c-.114.027-.24.045-.381.053-.344.02-.624-.02-.841-.12-.217-.1-.426-.277-.627-.53-.201-.254-.427-.686-.677-1.295l-.375-.85L7.416 16.9H5.74l2.197-4.523L6.93 10.08c-.18-.45-.518-.674-1.014-.674l-.38.035L5.5 8.165c.309-.09.615-.135.92-.135z" fill="#006C8E"/>
  </g>
</svg>
